icons/mail-lock-fill.svg

<svg xmlns="http://www.w3.org/2000/svg" width="24" height="24" fill="none"><g clip-path="url(#a)"><g><path fill="#121212" d="M22 12C21.3253 11.4944 20.5337 11.1676 19.6988 11.0498C18.864 10.9321 18.0129 11.0273 17.2247 11.3267C16.4365 11.626 15.7367 12.1197 15.1904 12.7619C14.6441 13.4041 14.269 14.174 14.1 15H13V21H3C2.73478 21 2.48043 20.8946 2.29289 20.7071C2.10536 20.5196 2 20.2652 2 20V4C2 3.73478 2.10536 3.48043 2.29289 3.29289C2.48043 3.10536 2.73478 3 3 3H21C21.2652 3 21.5196 3.10536 21.7071 3.29289C21.8946 3.48043 22 3.73478 22 4V12ZM12.06 11.683L5.648 6.238L4.353 7.762L12.073 14.317L19.654 7.757L18.346 6.244L12.061 11.683H12.06ZM22 17H23V22H15V17H16V16C16 15.2044 16.3161 14.4413 16.8787 13.8787C17.4413 13.3161 18.2044 13 19 13C19.7956 13 20.5587 13.3161 21.1213 13.8787C21.6839 14.4413 22 15.2044 22 16V17ZM20 17V16C20 15.7348 19.8946 15.4804 19.7071 15.2929C19.5196 15.1054 19.2652 15 19 15C18.7348 15 18.4804 15.1054 18.2929 15.2929C18.1054 15.4804 18 15.7348 18 16V17H20Z"/></g></g><defs><clipPath id="a"><rect width="24" height="24" fill="white"/></clipPath></defs></svg>

<svg width="24" height="24" fill="none" xmlns="http://www.w3.org/2000/svg"><g clip-path="url(#a)"><path d="M22 12a5.003 5.003 0 0 0-7.9 3H13v6H3a1 1 0 0 1-1-1V4a1 1 0 0 1 1-1h18a1 1 0 0 1 1 1v8Zm-9.94-.317L5.648 6.238 4.353 7.762l7.72 6.555 7.581-6.56-1.308-1.513-6.285 5.439h-.001ZM22 17h1v5h-8v-5h1v-1a3 3 0 0 1 6 0v1Zm-2 0v-1a1 1 0 0 0-2 0v1h2Z" /></g><defs><clipPath id="a"><path fill="#fff" d="M0 0h24v24H0z"/></clipPath></defs></svg>
